X: 43251
T: Wolfwalkers
R: reel
M: 4/4
K: Edorian
B2AB EBAG|A~DDD FGAF|B2AB EBAG|Adde fedc|
B2AB EBAG|A~DDD FGAF|B2AB EBAG|Addc BAGF||
e2Be edef|d~AAA defd|e2Be edef|g~ggf edgf|
e2Be edef|d~AAA defd|B2AB EBAG|Aded gfed||

